priv/static/svgs/icons_new/sport-harness.svg

<svg width="32" height="32" viewBox="0 0 32 32" fill="none" xmlns="http://www.w3.org/2000/svg">
<path d="M19.902 13.6705L20.4011 13.6403L19.902 13.6705ZM20.1507 12.6206L19.7181 12.3699V12.3699L20.1507 12.6206ZM19.6838 15.2496L20.1161 15.501L19.6838 15.2496ZM19.9339 14.1973L19.4348 14.2275L19.9339 14.1973ZM16.5597 7.05478C16.2836 7.05478 16.0597 7.27864 16.0597 7.55478C16.0597 7.83092 16.2836 8.05478 16.5597 8.05478V7.05478ZM19.8263 7.06582L20.072 7.50129C20.0814 7.49602 20.0905 7.49046 20.0995 7.4846L19.8263 7.06582ZM23.1824 5.5L23.6818 5.47534C23.6687 5.20911 23.449 5 23.1824 5V5.5ZM24.6289 11.9041L24.9677 11.5363C24.96 11.5293 24.9521 11.5224 24.944 11.5159L24.6289 11.9041ZM24.5117 11.8089L24.8268 11.4207C24.803 11.4014 24.7776 11.3844 24.7508 11.3698L24.5117 11.8089ZM23.4518 11.5623L23.4283 11.0627L23.4175 11.0634L23.4518 11.5623ZM23.0695 11.5493L23.0056 12.0453L23.0182 12.0466L23.0695 11.5493ZM21.7626 9.28133C21.7982 9.00748 21.605 8.75667 21.3311 8.72114C21.0573 8.6856 20.8065 8.87878 20.771 9.15263L21.7626 9.28133ZM26.021 12.4672L25.6282 12.1578V12.1578L26.021 12.4672ZM25.438 12.6575L25.3036 13.1391L25.438 12.6575ZM26.4493 11.4879L26.0044 11.7161L26.4493 11.4879ZM26.3999 11.986L26.7927 12.2953V12.2953L26.3999 11.986ZM23.2192 6.24469L23.7186 6.22004V6.22004L23.2192 6.24469ZM23.4321 6.79695L23.0433 7.11129L23.4321 6.79695ZM25.1333 12.4491L24.7398 12.7576L25.1333 12.4491ZM21.5261 5.95704L21.253 5.53826V5.53826L21.5261 5.95704ZM25.4861 9.61728C25.6713 9.41248 25.6554 9.09629 25.4506 8.91106C25.2458 8.72583 24.9296 8.74169 24.7444 8.9465L25.4861 9.61728ZM22.6898 11.2182C22.5045 11.423 22.5204 11.7392 22.7252 11.9244C22.93 12.1097 23.2462 12.0938 23.4314 11.889L22.6898 11.2182ZM14.4186 9.15116C14.1425 9.15116 13.9186 9.37502 13.9186 9.65116C13.9186 9.9273 14.1425 10.1512 14.4186 10.1512V9.15116ZM20.3824 11.9991C20.635 12.1108 20.9303 11.9966 21.042 11.7441C21.1537 11.4916 21.0395 11.1963 20.787 11.0846L20.3824 11.9991ZM16.6735 9.81157L16.4712 10.2688L16.6735 9.81157ZM13.1091 11.2798C12.8329 11.2798 12.6091 11.5037 12.6091 11.7798C12.6091 12.0559 12.8329 12.2798 13.1091 12.2798V11.2798ZM14.3645 12.2798C14.6406 12.2798 14.8645 12.0559 14.8645 11.7798C14.8645 11.5037 14.6406 11.2798 14.3645 11.2798V12.2798ZM19.2771 15.118C19.0321 15.2454 18.9367 15.5472 19.064 15.7923C19.1913 16.0373 19.4932 16.1327 19.7382 16.0053L19.2771 15.118ZM21.8026 21.5248C21.571 21.6752 21.5051 21.9849 21.6555 22.2165C21.8059 22.4481 22.1156 22.5139 22.3472 22.3635L21.8026 21.5248ZM24.0943 20.6328L24.3666 21.0522L24.0943 20.6328ZM23.8606 16.8181L24.0064 16.3398L23.8606 16.8181ZM20.1486 17.2099C19.8783 17.1533 19.6134 17.3267 19.5569 17.597C19.5004 17.8673 19.6737 18.1322 19.944 18.1887L20.1486 17.2099ZM21.0267 19.9998C20.7845 20.1326 20.6958 20.4364 20.8285 20.6786C20.9612 20.9208 21.2651 21.0095 21.5072 20.8768L21.0267 19.9998ZM22.8874 19.5503L23.1277 19.9888L22.8874 19.5503ZM22.7579 18.2661L22.6556 18.7556L22.7579 18.2661ZM16.1799 16.2967C15.9813 16.1049 15.6647 16.1105 15.4729 16.3091C15.2811 16.5078 15.2867 16.8243 15.4853 17.0161L16.1799 16.2967ZM19.5423 20.8148L19.9847 20.5819L19.9636 20.5418L19.9356 20.5061L19.5423 20.8148ZM23.0434 23.45L22.6268 23.7264L22.6534 23.7665L22.6871 23.8008L23.0434 23.45ZM20.8324 20.1181L20.381 20.3331L20.3962 20.3651L20.4158 20.3946L20.8324 20.1181ZM18.9859 15.0784C18.8672 14.8291 18.5688 14.7232 18.3195 14.842C18.0702 14.9607 17.9643 15.2591 18.0831 15.5084L18.9859 15.0784ZM24.4511 24.8799L24.0948 25.2307L24.4511 24.8799ZM22.5938 25.7485L23.0432 25.5295L22.5938 25.7485ZM21.8882 24.5464L21.5925 24.9495L21.8882 24.5464ZM22.176 24.891L21.7265 25.11L22.176 24.891ZM21.1663 23.8995L21.6087 23.6666V23.6666L21.1663 23.8995ZM21.4408 24.2181L21.7366 23.815L21.4408 24.2181ZM16.6043 17.2258L16.3649 17.6647L16.6043 17.2258ZM16.9448 17.5044L17.3381 17.1958L16.9448 17.5044ZM12.899 14.3023C13.1751 14.3023 13.399 14.0785 13.399 13.8023C13.399 13.5262 13.1751 13.3023 12.899 13.3023V14.3023ZM6.8301 13.3023C6.55396 13.3023 6.3301 13.5262 6.3301 13.8023C6.3301 14.0785 6.55396 14.3023 6.8301 14.3023V13.3023ZM15.2727 21.3721C15.2727 23.9272 13.1977 26 10.6364 26V27C13.7484 27 16.2727 24.4811 16.2727 21.3721H15.2727ZM10.6364 26C8.07499 26 6 23.9272 6 21.3721H5C5 24.4811 7.52426 27 10.6364 27V26ZM6 21.3721C6 18.8169 8.07499 16.7442 10.6364 16.7442V15.7442C7.52426 15.7442 5 18.2631 5 21.3721H6ZM10.6364 16.7442C13.1977 16.7442 15.2727 18.8169 15.2727 21.3721H16.2727C16.2727 18.2631 13.7484 15.7442 10.6364 15.7442V16.7442ZM19.5444 16.4838L20.1161 15.501L19.2516 14.9982L18.68 15.981L19.5444 16.4838ZM20.433 14.1672L20.4011 13.6403L19.403 13.7007L19.4348 14.2275L20.433 14.1672ZM20.5833 12.8714L21.8799 10.6345L21.0148 10.133L19.7181 12.3699L20.5833 12.8714ZM20.4011 13.6403C20.3849 13.3718 20.4482 13.1044 20.5833 12.8714L19.7181 12.3699C19.4845 12.7729 19.3749 13.2358 19.403 13.7007L20.4011 13.6403ZM20.1161 15.501C20.3509 15.0973 20.4611 14.6333 20.433 14.1672L19.4348 14.2275C19.4511 14.4968 19.3874 14.7649 19.2516 14.9982L20.1161 15.501ZM16.5597 8.05478C17.7257 8.05478 18.8157 8.2101 20.072 7.50129L19.5806 6.63035C18.6128 7.17639 17.8698 7.05478 16.5597 7.05478V8.05478ZM20.0995 7.4846L21.7993 6.37582L21.253 5.53826L19.5531 6.64704L20.0995 7.4846ZM23.0638 6H23.1824V5H23.0638V6ZM22.683 5.52466L22.7198 6.26935L23.7186 6.22004L23.6818 5.47534L22.683 5.52466ZM23.0433 7.11129C24.1962 8.53743 25.1615 10.0734 26.0044 11.7161L26.8942 11.2596C26.025 9.56579 25.0236 7.97023 23.8209 6.48262L23.0433 7.11129ZM26.0071 11.6766L25.6282 12.1578L26.4138 12.7765L26.7927 12.2953L26.0071 11.6766ZM25.5269 12.1407C25.3565 11.9234 25.1692 11.7219 24.9677 11.5363L24.2902 12.2719C24.4537 12.4224 24.6041 12.5844 24.7398 12.7576L25.5269 12.1407ZM24.944 11.5159L24.8268 11.4207L24.1966 12.1971L24.3138 12.2923L24.944 11.5159ZM24.7508 11.3698C24.347 11.1499 23.8916 11.0411 23.4283 11.0628L23.4752 12.0617C23.7504 12.0488 24.0247 12.1131 24.2725 12.248L24.7508 11.3698ZM23.4175 11.0634C23.3343 11.0692 23.2375 11.0639 23.1207 11.0519L23.0182 12.0466C23.1535 12.0606 23.3172 12.0727 23.486 12.0611L23.4175 11.0634ZM23.1334 11.0534C22.2641 10.9414 21.6506 10.1445 21.7626 9.28133L20.771 9.15263C20.5876 10.5655 21.59 11.8629 23.0056 12.0452L23.1334 11.0534ZM25.6282 12.1578C25.6152 12.1743 25.5932 12.1817 25.5723 12.1759L25.3036 13.1391C25.7128 13.2532 26.1508 13.1104 26.4138 12.7765L25.6282 12.1578ZM26.0044 11.7161C25.9967 11.7011 25.9999 11.6858 26.0071 11.6766L26.7927 12.2953C27.0243 12.0013 27.0673 11.5971 26.8942 11.2596L26.0044 11.7161ZM22.7198 6.26935C22.7352 6.58059 22.8517 6.87426 23.0433 7.11129L23.8209 6.48262C23.7582 6.40495 23.7232 6.31272 23.7186 6.22004L22.7198 6.26935ZM25.5723 12.1759C25.564 12.1736 25.5461 12.1652 25.5269 12.1407L24.7398 12.7576C24.8762 12.9315 25.0688 13.0736 25.3036 13.1391L25.5723 12.1759ZM21.7993 6.37582C22.1752 6.13062 22.6146 6 23.0638 6V5C22.4207 5 21.7914 5.18701 21.253 5.53826L21.7993 6.37582ZM24.7444 8.9465L22.6898 11.2182L23.4314 11.889L25.4861 9.61728L24.7444 8.9465ZM14.4186 10.1512H15.9142V9.15116H14.4186V10.1512ZM16.4712 10.2688L20.3824 11.9991L20.787 11.0846L16.8758 9.35432L16.4712 10.2688ZM15.9142 10.1512C16.1061 10.1512 16.2958 10.1913 16.4712 10.2688L16.8758 9.35432C16.5729 9.22036 16.2454 9.15116 15.9142 9.15116V10.1512ZM13.1091 12.2798H14.3645V11.2798H13.1091V12.2798ZM19.7382 16.0053C19.645 16.0538 19.5617 16.0583 19.5477 16.0593C19.5194 16.0613 19.4981 16.06 19.4902 16.0595C19.4734 16.0584 19.4648 16.0566 19.4712 16.0577C19.4814 16.0594 19.5053 16.0643 19.5472 16.0741C19.6284 16.0932 19.7476 16.1243 19.8994 16.1658C20.2015 16.2484 20.6136 16.3673 21.0682 16.501C21.9764 16.7682 23.0435 17.0917 23.7148 17.2964L24.0064 16.3398C23.3344 16.1349 22.2635 15.8103 21.3504 15.5416C20.8943 15.4075 20.4748 15.2865 20.1633 15.2013C20.0084 15.1589 19.8753 15.124 19.7762 15.1007C19.7279 15.0893 19.6796 15.0788 19.6378 15.0717C19.6181 15.0684 19.5885 15.0638 19.556 15.0617C19.5402 15.0607 19.5125 15.0594 19.479 15.0617C19.4599 15.063 19.3728 15.0683 19.2771 15.118L19.7382 16.0053ZM24.0205 17.7107V19.8486H25.0205V17.7107H24.0205ZM23.822 20.2135L21.8026 21.5248L22.3472 22.3635L24.3666 21.0522L23.822 20.2135ZM24.0205 19.8486C24.0205 19.9956 23.946 20.133 23.822 20.2135L24.3666 21.0522C24.7742 20.7875 25.0205 20.3347 25.0205 19.8486H24.0205ZM23.7148 17.2964C23.8966 17.3518 24.0205 17.5188 24.0205 17.7107H25.0205C25.0205 17.0814 24.6114 16.5243 24.0064 16.3398L23.7148 17.2964ZM19.944 18.1887L22.6556 18.7556L22.8603 17.7767L20.1486 17.2099L19.944 18.1887ZM22.6305 18.724V19.1403H23.6305V18.724H22.6305ZM22.6471 19.1119L21.0267 19.9998L21.5072 20.8768L23.1277 19.9888L22.6471 19.1119ZM22.6305 19.1403C22.6305 19.1281 22.6371 19.1173 22.6471 19.1119L23.1277 19.9888C23.4375 19.819 23.6305 19.4939 23.6305 19.1403H22.6305ZM22.6556 18.7556C22.6415 18.7526 22.6305 18.7398 22.6305 18.724H23.6305C23.6305 18.2653 23.3085 17.8704 22.8603 17.7767L22.6556 18.7556ZM15.4853 17.0161C15.7451 17.2669 16.039 17.4871 16.3649 17.6647L16.8437 16.7868C16.6008 16.6544 16.3788 16.4888 16.1799 16.2967L15.4853 17.0161ZM16.5514 17.8131L19.1489 21.1234L19.9356 20.5061L17.3381 17.1958L16.5514 17.8131ZM19.0998 21.0477L20.7239 24.1324L21.6087 23.6666L19.9847 20.5819L19.0998 21.0477ZM21.145 24.6212L21.5925 24.9495L22.184 24.1432L21.7366 23.815L21.145 24.6212ZM21.7265 25.11L22.1443 25.9675L23.0432 25.5295L22.6255 24.672L21.7265 25.11ZM23.0151 26.5116H24.117V25.5116H23.0151V26.5116ZM25.0855 25.5439V25.2078H24.0855V25.5439H25.0855ZM24.8074 24.5291L23.3997 23.0992L22.6871 23.8008L24.0948 25.2307L24.8074 24.5291ZM23.46 23.1735L21.249 19.8417L20.4158 20.3946L22.6268 23.7264L23.46 23.1735ZM21.2838 19.9031L18.9859 15.0784L18.0831 15.5084L20.381 20.3331L21.2838 19.9031ZM25.0855 25.2078C25.0855 24.9538 24.9855 24.7101 24.8074 24.5291L24.0948 25.2307C24.0889 25.2247 24.0855 25.2165 24.0855 25.2078H25.0855ZM22.1443 25.9675C22.3066 26.3007 22.6449 26.5116 23.0151 26.5116V25.5116C23.0267 25.5116 23.0378 25.5182 23.0432 25.5295L22.1443 25.9675ZM21.5925 24.9495C21.6496 24.9914 21.6956 25.0465 21.7265 25.11L22.6255 24.672C22.5234 24.4625 22.3719 24.2811 22.184 24.1432L21.5925 24.9495ZM20.7239 24.1324C20.8254 24.3252 20.9694 24.4923 21.145 24.6212L21.7366 23.815C21.6832 23.7758 21.6395 23.725 21.6087 23.6666L20.7239 24.1324ZM24.117 26.5116C24.6511 26.5116 25.0855 26.0791 25.0855 25.5439H24.0855C24.0855 25.5253 24.1003 25.5116 24.117 25.5116V26.5116ZM16.3649 17.6647C16.451 17.7117 16.5116 17.7624 16.5514 17.8131L17.3381 17.1958C17.195 17.0134 17.0178 16.8818 16.8437 16.7868L16.3649 17.6647ZM12.899 13.3023H6.8301V14.3023H12.899V13.3023Z" fill="black"/>
</svg>

<svg width="32" height="32" viewBox="0 0 32 32" fill="none" xmlns="http://www.w3.org/2000/svg">
  <symbol id="item" viewBox="0 0 32 32"  fill="none">
    <path d="m19.902 13.67.5-.03-.5.03Zm.249-1.05-.433-.25.433.25Zm-.467 2.63.432.251-.432-.251Zm.25-1.053-.5.03.5-.03ZM16.56 7.055a.5.5 0 0 0 0 1v-1Zm3.266.01.246.436a.485.485 0 0 0 .027-.016l-.273-.42ZM23.182 5.5l.5-.025a.5.5 0 0 0-.5-.475v.5Zm1.447 6.404.339-.368a.51.51 0 0 0-.024-.02l-.315.388Zm-.117-.095.315-.388a.501.501 0 0 0-.076-.051l-.24.439Zm-1.06-.247-.024-.5-.01.001.034.5Zm-.383-.013-.063.496.012.002.052-.498Zm-1.306-2.268a.5.5 0 1 0-.992-.128l.992.128Zm4.258 3.186-.393-.31.393.31Zm-.583.19-.134.482.134-.481Zm1.011-1.17-.445.23.445-.23Zm-.05.499.394.31-.393-.31Zm-3.18-5.741.5-.025-.5.025Zm.213.552-.389.314.39-.314Zm1.701 5.652-.393.309.393-.309Zm-3.607-6.492-.273-.419.273.419Zm3.96 3.66a.5.5 0 0 0-.742-.67l.742.67Zm-2.796 1.601a.5.5 0 1 0 .741.671l-.741-.67Zm-8.271-2.067a.5.5 0 0 0 0 1v-1ZM20.382 12a.5.5 0 0 0 .405-.914l-.405.914Zm-3.709-2.187-.202.457.203-.457ZM13.11 11.28a.5.5 0 1 0 0 1v-1Zm1.255 1a.5.5 0 0 0 0-1v1Zm4.913 2.838a.5.5 0 0 0 .461.887l-.46-.887Zm2.526 6.407a.5.5 0 1 0 .544.838l-.544-.838Zm2.291-.892.273.42-.273-.42Zm-.233-3.815.145-.478-.145.478Zm-3.712.392a.5.5 0 1 0-.205.979l.205-.98Zm.878 2.79a.5.5 0 0 0 .48.877l-.48-.877Zm1.86-.45.24.439-.24-.439Zm-.13-1.284-.101.49.102-.49Zm-6.577-1.97a.5.5 0 0 0-.695.72l.695-.72Zm3.362 4.519.443-.233-.021-.04-.028-.036-.394.309Zm3.501 2.635-.416.276.026.04.034.035.356-.351Zm-2.21-3.332-.452.215.015.032.02.03.416-.277Zm-1.847-5.04a.5.5 0 1 0-.903.43l.903-.43Zm5.465 9.802-.356.35.356-.35Zm-1.857.869.45-.22-.45.22Zm-.706-1.203-.296.404.296-.404Zm.288.345-.45.219.45-.219Zm-1.01-.991.443-.233-.443.232Zm.275.318.296-.403-.296.403Zm-4.837-6.992-.24.439.24-.44Zm.34.278.394-.308-.393.308ZM12.9 14.302a.5.5 0 1 0 0-1v1Zm-6.069-1a.5.5 0 0 0 0 1v-1Zm8.443 8.07A4.632 4.632 0 0 1 10.636 26v1a5.632 5.632 0 0 0 5.637-5.628h-1ZM10.636 26A4.632 4.632 0 0 1 6 21.372H5A5.632 5.632 0 0 0 10.636 27v-1ZM6 21.372a4.632 4.632 0 0 1 4.636-4.628v-1A5.632 5.632 0 0 0 5 21.372h1Zm4.636-4.628a4.632 4.632 0 0 1 4.637 4.628h1a5.632 5.632 0 0 0-5.637-5.628v1Zm8.908-.26.572-.983-.864-.503-.572.983.864.503Zm.889-2.317-.032-.527-.998.06.032.527.998-.06Zm.15-1.296 1.297-2.237-.865-.501-1.297 2.237.865.501Zm-.182.77a1.368 1.368 0 0 1 .182-.77l-.865-.501a2.369 2.369 0 0 0-.315 1.33l.998-.06Zm-.285 1.86a2.37 2.37 0 0 0 .317-1.334l-.998.06c.016.27-.048.538-.183.771l.864.503ZM16.56 8.055c1.166 0 2.256.155 3.512-.554l-.491-.87c-.968.545-1.711.424-3.021.424v1Zm3.54-.57 1.7-1.11-.547-.837-1.7 1.109.546.838ZM23.063 6h.118V5h-.118v1Zm-.381-.475.037.744.999-.049-.037-.745-.999.05Zm.36 1.586c1.153 1.426 2.119 2.962 2.961 4.605l.89-.456c-.869-1.694-1.87-3.29-3.073-4.777l-.778.628Zm2.964 4.566-.379.48.786.62.379-.482-.786-.618Zm-.48.464a5.103 5.103 0 0 0-.56-.605l-.677.736c.164.15.314.312.45.486l.787-.617Zm-.583-.625-.117-.095-.63.776.117.095.63-.776Zm-.193-.146a2.516 2.516 0 0 0-1.323-.307l.047.999c.275-.013.55.051.797.186l.479-.878Zm-1.334-.307c-.083.006-.18 0-.296-.011l-.103.995c.136.014.3.026.468.014l-.069-.998Zm-.284-.01a1.586 1.586 0 0 1-1.37-1.772l-.992-.128a2.586 2.586 0 0 0 2.235 2.892l.127-.992Zm2.495 1.105a.053.053 0 0 1-.056.018l-.268.963c.409.114.847-.029 1.11-.362l-.786-.62Zm.376-.442a.037.037 0 0 1 .003-.04l.786.62a.963.963 0 0 0 .101-1.036l-.89.456ZM22.72 6.27c.015.312.132.605.323.842l.778-.628a.455.455 0 0 1-.102-.263l-1 .05Zm2.852 5.907a.095.095 0 0 1-.045-.035l-.787.617c.136.174.329.316.564.381l.268-.963Zm-3.773-5.8A2.315 2.315 0 0 1 23.064 6V5c-.643 0-1.273.187-1.811.538l.546.838Zm2.945 2.57-2.054 2.272.741.671 2.055-2.272-.742-.67ZM14.42 10.152h1.495v-1H14.42v1Zm2.052.118 3.911 1.73.405-.914-3.911-1.73-.405.914Zm-.557-.118c.192 0 .382.04.557.118l.405-.915a2.377 2.377 0 0 0-.962-.203v1ZM13.11 12.28h1.255v-1H13.11v1Zm6.63 3.725c-.094.049-.177.053-.191.054a.422.422 0 0 1-.058 0l-.019-.001a11.09 11.09 0 0 1 .428.108c.302.082.715.201 1.17.335.907.267 1.975.59 2.646.795l.291-.956c-.672-.205-1.742-.53-2.656-.798a70.39 70.39 0 0 0-1.187-.34 11.836 11.836 0 0 0-.387-.101 2.315 2.315 0 0 0-.138-.03.815.815 0 0 0-.159-.01c-.02.002-.106.007-.202.057l.461.887Zm4.281 1.706v2.138h1V17.71h-1Zm-.198 2.503-2.02 1.31.545.84 2.02-1.312-.545-.838Zm.198-.365a.435.435 0 0 1-.198.364l.545.84c.407-.265.653-.718.653-1.204h-1Zm-.305-2.553a.431.431 0 0 1 .305.415h1c0-.63-.409-1.187-1.014-1.371l-.291.956Zm-3.771.893 2.712.567.204-.98-2.711-.566-.205.979Zm2.687.535v.416h1v-.416h-1Zm.016.388-1.62.888.48.877 1.62-.888-.48-.877Zm-.016.028c0-.012.006-.023.016-.028l.48.877a.968.968 0 0 0 .504-.849h-1Zm.025-.384a.032.032 0 0 1-.025-.032h1a.968.968 0 0 0-.77-.947l-.205.979Zm-7.17-1.74c.26.25.553.471.879.649l.479-.878a3.074 3.074 0 0 1-.664-.49l-.695.72Zm1.065.797 2.598 3.31.787-.617-2.598-3.31-.787.617Zm2.549 3.235 1.624 3.084.885-.465-1.624-3.085-.885.466Zm2.045 3.573.448.329.591-.807-.447-.328-.592.806Zm.582.489.417.858.9-.439-.419-.857-.898.438Zm1.288 1.402h1.102v-1h-1.102v1Zm2.07-.968v-.336h-1v.336h1Zm-.278-1.015L23.4 23.1l-.713.702 1.408 1.43.712-.702Zm-1.347-1.355-2.211-3.332-.833.553 2.21 3.331.834-.552Zm-2.176-3.27-2.298-4.826-.903.43 2.298 4.825.903-.43Zm3.802 5.304c0-.254-.1-.498-.279-.679l-.712.702a.033.033 0 0 1-.01-.023h1Zm-2.942.76c.163.333.5.544.871.544v-1c.012 0 .023.006.028.017l-.899.439Zm-.551-1.018a.436.436 0 0 1 .134.16l.898-.438a1.436 1.436 0 0 0-.441-.529l-.591.806Zm-.87-.818c.102.193.246.36.422.49l.592-.807a.437.437 0 0 1-.128-.148l-.885.465Zm3.394 2.38a.968.968 0 0 0 .968-.968h-1c0-.019.015-.032.032-.032v1Zm-7.752-8.847a.596.596 0 0 1 .186.148l.787-.617a1.59 1.59 0 0 0-.494-.41l-.48.879Zm-3.466-4.363H6.83v1H12.9v-1Z" fill="currentColor"/>
  </symbol>
</svg>
